X:1
T:Title
%%score ( 1 2 ) { 3 | 4 }
L:1/8
M:4/4
K:Eb
V:1 treble nm="Grand Piano, Unnamed-000"
V:2 treble 
V:3 bass nm="Choir Pad, Unnamed-001"
V:4 bass 
V:1
 [EG]4 [EG]2 [DA]2 | [EB]4 E4 | [EF]3 [EF] [DG]2 [DA]2 | [EG]8 | [EG]4 [DF]2 E2 | [Ec]4 [EB]4 | %6
w: By~Horatius~Bonar,~1857 * *||||||
 [EB]3 [EB] [FA]2 [EG]2 | F4- [DF]4 | [EG]4 [EG]2 [DA]2 | [EB]4 [_DE]4 | [Cc]3 [Ec] [=Ec]2 [EG]2 | %11
w: |||||
 [FA]8 | [FA]4 [EG]2 [DF]2 | [EB]2 [B,E]2 [CE]2 [FA]2 | [EG]4 [DF]4 | E8 |] %16
w: |||||
V:2
 x8 | x8 | x8 | x8 | x8 | x8 | x8 | E4 z4 | x8 | x8 | x8 | x8 | x8 | x8 | x8 | x8 |] %16
V:3
 B,4 B,2 A,2 | G,4 G,4 | C3 C B,2 B,2 | B,8 | B,4 B,2 B,2 | A,4 B,4 | C3 C C2 C2 | F,4 B,4 | %8
 B,4 B,2 A,2 | G,4 B,4 | E,3 A, G,2[K:treble] C2 | C8 | C4 B,2 B,2 | B,2 G,2 G,2 C2 | B,4 A,4 | %15
 G,8 |] %16
V:4
 E,4 E,2 F,2 | z4 C,4 | A,,3 A,, B,,2 B,,2 | E,8 | E,4 F,2 G,2 | z4 G,4 | F,3 F, A,,2 A,,2 | B,,8 | %8
 E,4 E,2 F,2 | z4 G,,4 | A,,3 A,, C,2 C,2 | F,8 | F,4 z2 A,2 | G,2 z2 C,2 A,,2 | B,,4 B,,4 | E,8 |] %16

